svg/u1f538.svg

<svg viewBox="0 0 128 128" xmlns="http://www.w3.org/2000/svg">
  <path d="M65.72,44.04l18.5,18.4c1.05,1.07,1.03,2.8-0.04,3.85c-0.02,0.02-0.04,0.04-0.06,0.05l-18.4,18.6 c-1.11,1.1-2.89,1.1-4,0l-18.4-18.5c-1.08-1.06-1.12-2.78-0.1-3.9l18.5-18.4c1.01-1.13,2.75-1.23,3.88-0.21 C65.65,43.96,65.68,44,65.72,44.04z" fill="#F77E00"/>
  <path d="M62.72,46.64l16.1,16.1c0.91,0.95,0.88,2.45-0.06,3.37c-0.01,0.01-0.02,0.02-0.04,0.03l-16,16.2 c-0.92,0.97-2.45,1-3.42,0.08c-0.03-0.03-0.05-0.05-0.08-0.08l-16.1-16.1c-0.97-0.9-1.02-2.41-0.12-3.38 c0.01-0.01,0.01-0.01,0.02-0.02l16.2-16.1C60.17,45.76,61.72,45.72,62.72,46.64z" fill="#FF9800"/>
  <path d="M59.82,48.04c-0.5,0.4-11.7,11.5-11.7,11.5c-0.5,0.42-0.62,1.14-0.3,1.7c0.6,0.8,1.5,0.4,2,0 s10.5-10.3,10.9-10.8c0.41-0.55,0.48-1.28,0.2-1.9c-0.04-0.38-0.38-0.66-0.77-0.62C60.03,47.92,59.92,47.97,59.82,48.04z" fill="#FFBD52"/>
  <circle cx="46.62" cy="63.24" r="1.2" fill="#FFBD52"/>
</svg>

<svg viewBox="0 0 128 128" xmlns="http://www.w3.org/2000/svg">
  <defs/>
  <path d="M65.72,44.04 L84.22,62.44 C85.27,63.51 85.25,65.24 84.18,66.29 C84.16,66.31 84.14,66.33 84.12,66.34 L65.72,84.94 C64.61,86.04 62.83,86.04 61.72,84.94 L43.32,66.44 C42.24,65.38 42.2,63.66 43.22,62.54 L61.72,44.14 C62.73,43.01 64.47,42.91 65.6,43.93 C65.65,43.96 65.68,44 65.72,44.04 Z" fill="#F77E00"/>
  <path d="M62.72,46.64 L78.82,62.74 C79.73,63.69 79.7,65.19 78.76,66.11 C78.75,66.12 78.74,66.13 78.72,66.14 L62.72,82.34 C61.8,83.31 60.27,83.34 59.3,82.42 C59.27,82.39 59.25,82.37 59.22,82.34 L43.12,66.24 C42.15,65.34 42.1,63.83 43,62.86 C43.01,62.85 43.01,62.85 43.02,62.84 L59.22,46.74 C60.17,45.76 61.72,45.72 62.72,46.64 Z" fill="#FF9800"/>
  <path d="M59.82,48.04 C59.32,48.44 48.12,59.54 48.12,59.54 C47.62,59.96 47.5,60.68 47.82,61.24 C48.42,62.04 49.32,61.64 49.82,61.24 C50.32,60.84 60.32,50.94 60.72,50.44 C61.13,49.89 61.2,49.16 60.92,48.54 C60.88,48.16 60.54,47.88 60.15,47.92 C60.03,47.92 59.92,47.97 59.82,48.04 Z" fill="#FFBD52"/>
  <path d="M47.82,63.24 A1.2 1.2 0 1 1 45.42,63.24 A1.2 1.2 0 1 1 47.82,63.24 Z" fill="#FFBD52"/>
</svg>
